app/assets/images/navbar/gsrs-logo-round-bw.svg

<svg clip-rule="evenodd" fill-rule="evenodd" stroke-linejoin="round" stroke-miterlimit="2" viewBox="0 0 24 24" xmlns="http://www.w3.org/2000/svg"><g fill-rule="nonzero" transform="translate(-101.557 -1.44)"><path d="m125.549 13.44c0-6.625-5.371-11.987-11.996-11.987s-11.996 5.371-11.996 11.987z" fill="#2e2e2e"/><path d="m101.566 13.432c0 6.624 5.371 11.995 11.996 11.995 6.624 0 11.995-5.371 11.995-11.995zm4.498 0v-3.745s0-2.999 2.245-2.999 2.245 2.999 2.245 2.999v3.745z" fill="#c3c3c3"/><path d="m110.563 13.432v3.744s0 2.999-2.245 2.999-2.245-2.999-2.245-2.999v-3.744z" fill="#fff"/><path d="m111.308 13.432v-3.745s0-2.999 2.245-2.999 2.245 2.999 2.245 2.999v3.745z" fill="#c3c3c3"/><path d="m115.807 13.432v3.744s0 2.999-2.245 2.999-2.245-2.999-2.245-2.999v-3.744z" fill="#fff"/><path d="m116.552 13.432v-3.745s0-2.999 2.245-2.999 2.245 2.999 2.245 2.999v3.745z" fill="#c3c3c3"/><path d="m121.05 13.432v3.744s0 2.999-2.244 2.999c-2.245 0-2.245-2.999-2.245-2.999v-3.744z" fill="#fff"/></g></svg>

<?xml version="1.0" encoding="UTF-8" standalone="no"?>
<!DOCTYPE svg PUBLIC "-//W3C//DTD SVG 1.1//EN" "http://www.w3.org/Graphics/SVG/1.1/DTD/svg11.dtd">
<svg width="100%" height="100%" viewBox="0 0 24 24" version="1.1" xmlns="http://www.w3.org/2000/svg" xmlns:xlink="http://www.w3.org/1999/xlink" xml:space="preserve" xmlns:serif="http://www.serif.com/" style="fill-rule:evenodd;clip-rule:evenodd;stroke-linejoin:round;stroke-miterlimit:2;">
    <g transform="matrix(1,0,0,1,-101.557,-1.44017)">
        <g id="Layer-1" serif:id="Layer 1">
            <g id="g3044">
                <g id="g3019">
                    <path id="path3021" d="M125.549,13.44C125.549,6.815 120.178,1.453 113.553,1.453C106.928,1.453 101.557,6.824 101.557,13.44L125.549,13.44" style="fill:rgb(46,46,46);fill-rule:nonzero;"/>
                    <path id="path3023" d="M101.566,13.432C101.566,20.056 106.937,25.427 113.562,25.427C120.186,25.427 125.557,20.056 125.557,13.432L101.566,13.432" style="fill:rgb(195,195,195);fill-rule:nonzero;"/>
                    <path id="path3025" d="M106.064,13.432L106.064,9.687C106.064,9.687 106.064,6.688 108.309,6.688C110.554,6.688 110.554,9.687 110.554,9.687L110.554,13.432L106.064,13.432" style="fill:rgb(195,195,195);fill-rule:nonzero;"/>
                    <path id="path3027" d="M110.563,13.432L110.563,17.176C110.563,17.176 110.563,20.175 108.318,20.175C106.073,20.175 106.073,17.176 106.073,17.176L106.073,13.432L110.563,13.432" style="fill:white;fill-rule:nonzero;"/>
                    <path id="path3029" d="M111.308,13.432L111.308,9.687C111.308,9.687 111.308,6.688 113.553,6.688C115.798,6.688 115.798,9.687 115.798,9.687L115.798,13.432L111.308,13.432" style="fill:rgb(195,195,195);fill-rule:nonzero;"/>
                    <path id="path3031" d="M115.807,13.432L115.807,17.176C115.807,17.176 115.807,20.175 113.562,20.175C111.317,20.175 111.317,17.176 111.317,17.176L111.317,13.432L115.807,13.432" style="fill:white;fill-rule:nonzero;"/>
                    <path id="path3033" d="M116.552,13.432L116.552,9.687C116.552,9.687 116.552,6.688 118.797,6.688C121.042,6.688 121.042,9.687 121.042,9.687L121.042,13.432L116.552,13.432" style="fill:rgb(195,195,195);fill-rule:nonzero;"/>
                    <path id="path3035" d="M121.05,13.432L121.05,17.176C121.05,17.176 121.05,20.175 118.806,20.175C116.561,20.175 116.561,17.176 116.561,17.176L116.561,13.432L121.05,13.432" style="fill:white;fill-rule:nonzero;"/>
                </g>
            </g>
        </g>
    </g>
</svg>
